X: 15191
T: Gillian's
R: waltz
M: 3/4
K: Gmajor
B/A>G|:E3D E>G|E3D E>G|A4 A>B|G3B d>g|
e4 d>B|d>G G>B A>G|A4 A>G|B3B A>G|
E3D E>G|E3D E>G|A4 A>B|G3B d>g|
e4 d>B|d>G G>B A>G|A4 A>B|G3B d>g|
e4 d>B|d>G G>B A>G|D>A A>d D>A|B>G A>B d>g|
e2 g3e|d>G G>B A>G|D>A A>G B/A/G|G3B d>g
e4 d>B|d>G G>B A>G|D>A A>d D>A|B>G A>B d>g|
e4 d>B|d>G G>B A>G|D>A A>G B/A/G|1 G3B A>G:|2 G2 G4||

